!!!!SEGMENT: pl-cz--d-ii-9_elsner-jozef--marcia-funebre.krn
!!!cenid: 18xx:10
!!!COM: Elsner, Józef
!!!COM-rism: pe30000957
!!!CDT: 1769/06/01-1854/04/18
!!!CNT: Polish
!!!OTL: Marcia funebre
!!!PDT:
!!!AGN: Sacred
!!!SMS-siglum: PL-CZ
!!!SMS-shelfmark: D II-9
!!!NIFC-rismID:
!!!URL-scan: http://repozytorium.nifc.pl/skany/pl-cz-nut--dii-9
!!!ONB-nifc:
!!!OMD: Adagio non troppo
**kern	**dynam	**kern	**dynam	**kern	**dynam	**kern	**dynam	**kern	**dynam	**kern	**dynam	**kern	**dynam	**kern	**dynam
*part8	*part8	*part7	*part7	*part6	*part6	*part5	*part5	*part4	*part4	*part3	*part3	*part2	*part2	*part1	*part1
*staff8	*	*staff7	*	*staff6	*	*staff5	*	*staff4	*	*staff3	*	*staff2	*	*staff1	*
*I"BASSI.	*	*I"TYMPANI. in C.G.	*	*I"TROMBOM	*	*I"TROMBA in C	*	*I"CORNI in Es.	*	*I"FAGOTTI.	*	*I"CLARINETTI. in B.	*	*I"FLAUTO	*
*clefF4	*	*clefF4	*	*clefF4	*	*clefG2	*	*clefG2	*	*clefF4	*	*clefG2	*	*clefG2	*
*	*	*	*	*	*	*	*	*ITrd5c9	*	*	*	*ITrd1c2	*	*	*
*k[b-e-a-]	*	*k[b-e-a-]	*	*k[b-e-a-]	*	*k[b-e-a-]	*	*k[b-e-a-]	*	*k[b-e-a-]	*	*k[b-e-a-]	*	*k[b-e-a-]	*
*E-:	*	*E-:	*	*E-:	*	*E-:	*	*	*	*E-:	*	*E-:	*	*E-:	*
*M2/2	*	*M2/2	*	*M2/2	*	*M2/2	*	*M2/2	*	*M2/2	*	*M2/2	*	*M2/2	*
*met(c|)	*	*met(c|)	*	*met(c|)	*	*met(c|)	*	*met(c|)	*	*met(c|)	*	*met(c|)	*	*met(c|)	*
*	*	*	*	*	*	*	*	*	*	*^	*	*^	*	*	*
8.C/L	.	4r	.	8.C/L	.	4r	.	4r	.	8.C/L	8.C\L	.	8.c/L	8.c\L	.	4r	.
16C/Jk	.	.	.	16C/Jk	.	.	.	.	.	16C/Jk	16C\Jk	.	16c/Jk	16c\Jk	.	.	.
=1	=1	=1	=1	=1	=1	=1	=1	=1	=1	=1	=1	=1	=1	=1	=1	=1	=1
!	!	!	!	!	!	!	!	!	!	!	!	!	!LO:TX:a:t=z racji zapisywania dynamiki raz pod pięciolinią, raz nad nią, trudno czasem ocenić, czy mamy do czynienia z decrescendo, czy z akcentem	!	!	!	!
*	*	*	*	*	*	*	*	*^	*	*	*	*	*	*	*	*	*
!	!LO:HP:a	!	!	!	!LO:HP:a	!	!	!	!	!LO:HP:a	!	!	!LO:HP:a	!	!	!LO:HP:a	!	!
2.E-\	>	4r	.	2.E-\	>	1r	.	2.e-/	2.e-\	>	2.E-/	2.E-\	>	2.e-/	2.e-\	>	2r	.
.	]	16C/LL	.	.	]	.	.	.	.	]	.	.	]	.	.	]	.	.
.	.	16C/	.	.	.	.	.	.	.	.	.	.	.	.	.	.	.	.
.	.	16C/	.	.	.	.	.	.	.	.	.	.	.	.	.	.	.	.
.	.	16C/JJ	.	.	.	.	.	.	.	.	.	.	.	.	.	.	.	.
!	!	!	!	!	!	!	!	!	!	!	!	!	!	!	!	!	!LO:TX:a:B:i:t=dolce	!
.	.	8C/	.	.	.	.	.	.	.	.	.	.	.	.	.	.	4r	.
.	.	8r	.	.	.	.	.	.	.	.	.	.	.	.	.	.	.	.
!	!	!	!	!	!	!	!	!	!	!	!	!	!	!LO:TX:a:B:i:t=dolce	!	!	!	!
4r	.	4r	.	4r	.	.	.	4r	4ryy	.	8.E-/L 8.G/	4ryy	.	8.g/L	8.e-\L	.	(>8.gg\L	.
.	.	.	.	.	.	.	.	.	.	.	16G/Jk [16e-/	.	.	16ee-/Jk	16g\Jk	.	16eee-\Jk	.
*	*	*	*	*	*	*	*	*	*	*	*v	*v	*	*	*	*	*	*
=2	=2	=2	=2	=2	=2	=2	=2	=2	=2	=2	=2	=2	=2	=2	=2	=2	=2
!	!	!	!LO:DY:a	!	!LO:DY:a	!	!LO:DY:a	!	!	!LO:DY:a	!	!	!	!	!	!	!
8.r	.	8.r	p	4C/	p	8.r	p	2e-/	2e-\	p	2G\ 2e-\]	.	2ee-/	2g\	.	2eee-\)	.
16C/KL	.	16C/KL	.	.	.	16c/KL	.	.	.	.	.	.	.	.	.	.	.
8.E-\	.	8.C/	.	4r	.	8.c/	.	.	.	.	.	.	.	.	.	.	.
16C/Jk	.	16C/Jk	.	.	.	16c/Jk	.	.	.	.	.	.	.	.	.	.	.
!LO:TX:a:t=P:mixed beam:problem	!	!	!	!	!	!	!	!	!	!	!	!	!	!	!	!	!
8.G\L	.	8.r	.	4GG/	.	8.r	.	2g/	2g\	.	[>2F\ [2d\	.	[2dd/	[>2f\	.	[2ddd\	.
16GG/K	.	16GG/KL	.	.	.	16g/KL	.	.	.	.	.	.	.	.	.	.	.
8.BBn/	.	8.GG/	.	4r	.	8.g/	.	.	.	.	.	.	.	.	.	.	.
16GG/Jk	.	16GG/Jk	.	.	.	16g/Jk	.	.	.	.	.	.	.	.	.	.	.
=3	=3	=3	=3	=3	=3	=3	=3	=3	=3	=3	=3	=3	=3	=3	=3	=3	=3
4.C\	.	16C/LL	.	4.C/	.	4g/	.	2g/	2g\	.	4F\] 4d\]	.	4dd/]	4f\]	.	4ddd\]	.
.	.	16C/	.	.	.	.	.	.	.	.	.	.	.	.	.	.	.
.	.	16C/	.	.	.	.	.	.	.	.	.	.	.	.	.	.	.
.	.	16C/JJ	.	.	.	.	.	.	.	.	.	.	.	.	.	.	.
.	.	8C/	.	.	.	4r	.	.	.	.	4E-\ 4c\	.	4cc/	4e-\	.	4ccc\	.
!	!LO:HP:a	!LO:TX:a:t=P:pauzy na drugiej linii:problem	!	!	!LO:HP:a	!	!	!	!	!	!	!	!	!	!	!	!
8E-\	>	8r	.	8E-\	>	.	.	.	.	.	.	.	.	.	.	.	.
(>4.A-\	.	2r	.	(>4.A-\	.	2r	.	4.a-/	4.a-\	.	4D\ 4Bn\	.	4b/X	4d\	.	4bbn\	.
.	]	.	.	.	]	.	.	.	.	.	[>4E-\ [4c\	.	[4cc/	[>4e-\	.	4ccc\	.
8G\)	.	.	.	8G\)	.	.	.	8g/	8g\	.	.	.	.	.	.	.	.
=4	=4	=4	=4	=4	=4	=4	=4	=4	=4	=4	=4	=4	=4	=4	=4	=4	=4
8.F#\XL	.	2r	.	8.F#\XL	.	2r	.	8.f#/XL	8.f#\L	.	8.E-\L] 8.c\]	.	8.cc/L]	8.e-\L]	.	8.ccc\L	.
16G\K	.	.	.	16G\K	.	.	.	16g/K	16g\K	.	16D\Jk 16Bn\	.	16b/XJk	16d\Jk	.	16bbn\Jk	.
8.A-\	.	.	.	8.A-\	.	.	.	8.a-/	8.a-\	.	2D\ 2B\	.	2b/	2d\	.	2bb\	.
16G\Jk	.	.	.	16G\Jk	.	.	.	16g/Jk	16g\Jk	.	.	.	.	.	.	.	.
4G\	.	8.r	.	4G\	.	8.r	.	8.g/L	2ryy	.	.	.	.	.	.	.	.
.	.	16GG/KL	.	.	.	16g/KL	.	16G/K 16g/	.	.	.	.	.	.	.	.	.
4r	.	8.GG/	.	4r	.	8.g/	.	8.G/ 8.g/	.	.	4r	.	4r	4ryy	.	4r	.
.	.	16GG/Jk	.	.	.	16g/Jk	.	16G/Jk 16g/	.	.	.	.	.	.	.	.	.
*	*	*	*	*	*	*	*	*v	*v	*	*	*	*v	*v	*	*	*
=5	=5	=5	=5	=5	=5	=5	=5	=5	=5	=5	=5	=5	=5	=5	=5
*	*	*tremolo	*	*	*	*	*	*	*	*	*	*	*	*	*
!	!	!LO:TX:a:t=P:nie wyświetla się ligatura z tremolo:problem	!	!	!	!	!	!	!	!	!	!	!	!	!
8r	.	[16GG/LL	.	4r	.	[2g/	.	(>2G\ [2g\	.	(>4.Bn\ 4.d\	.	(>4.b\X 4.dd\	.	(>4.ddd\	.
.	.	16GG/	.	.	.	.	.	.	.	.	.	.	.	.	.
16r	.	16GG/	.	.	.	.	.	.	.	.	.	.	.	.	.
16GG/KL	.	16GG/	.	.	.	.	.	.	.	.	.	.	.	.	.
8.BBn/	.	16GG/	.	4GG/	.	.	.	.	.	.	.	.	.	.	.
.	.	16GG/	.	.	.	.	.	.	.	.	.	.	.	.	.
.	.	16GG/	.	.	.	.	.	.	.	16c\LL 16e-\	.	16cc\LL 16ee-\	.	16eee-\LL	.
16GG/Jk	.	16GG/JJ	.	.	.	.	.	.	.	16d\JJ) 16f\	.	16dd\JJ) 16ff\	.	16fff\JJ)	.
4C/	.	8.GG/L]	.	4C/	.	8.g/L]	.	8.GL\) 8.g\]	.	4c\ 4e-\	.	4cc\ 4ee-\	.	4eee-\	.
.	.	16GG/K	.	.	.	16g/K	.	16G/K 16g/	.	.	.	.	.	.	.
4r	.	8.GG/	.	4r	.	8.g/	.	8.G/ 8.g/	.	4r	.	4r	.	4r	.
.	.	16GG/Jk	.	.	.	16g/Jk	.	16G/Jk 16g/	.	.	.	.	.	.	.
=6	=6	=6	=6	=6	=6	=6	=6	=6	=6	=6	=6	=6	=6	=6	=6
*	*	*	*	*	*	*	*	*	*	*^	*	*	*	*	*
*	*	*tremolo	*	*	*	*	*	*	*	*	*	*	*	*	*	*
8.r	.	16GG/LL	.	4r	.	2g/	.	2G\ 2g\	.	(>4.Bn/ 4.d/	2ryy	.	(>4.b\X 4.dd\	.	(>4.ddd\	.
.	.	16GG/	.	.	.	.	.	.	.	.	.	.	.	.	.	.
.	.	16GG/	.	.	.	.	.	.	.	.	.	.	.	.	.	.
16GG/KL	.	16GG/	.	.	.	.	.	.	.	.	.	.	.	.	.	.
8.BBn/	.	16GG/	.	4GG/	.	.	.	.	.	.	.	.	.	.	.	.
.	.	16GG/	.	.	.	.	.	.	.	.	.	.	.	.	.	.
.	.	16GG/	.	.	.	.	.	.	.	16c/LL 16e-/	.	.	16cc\LL 16ee-\	.	16eee-\LL	.
16GG/Jk	.	16GG/JJ	.	.	.	.	.	.	.	16d/JJ) 16f/	.	.	16dd\JJ) 16ff\	.	16fff\JJ)	.
!	!LO:HP:a	!	!	!	!LO:HP:a	!	!	!	!LO:HP:a	!	!	!	!	!LO:HP:a	!	!LO:HP:a
4C/	>	8C/	.	4C/	>	4g/	.	4G\ 4g\	>	4c/ 4e-/	4ryy	.	4cc\ 4ee-\	>	4eee-\	>
.	.	8r	.	.	.	.	.	.	.	.	.	.	.	.	.	.
4BB-/X	]]	4r	.	4BB-/	]]	[<4b-\X	.	4B-/ 4f/	]]	4a-/	4B-\X	.	4dd\ 4ff\	]]	4fff\	]]
=7	=7	=7	=7	=7	=7	=7	=7	=7	=7	=7	=7	=7	=7	=7	=7	=7
*	*	*	*	*	*	*	*	*	*	*	*	*	*^	*	*	*
!	!LO:DY:a	!	!	!	!	!	!	!	!	!	!	!	!	!	!	!	!LO:DY:a
4E-\	f	1r	.	4E-\	]	4b-\]	.	4G/ 4e-/	]	4.g/	4E-\	.	4.gg/	4ee-\	]	4.ggg\	f
8.AA-/L	.	.	.	4AA-/	.	8.cc/L	.	8.E-/L 8.e-/	.	.	8.AA-/L	.	.	8.cc\L	.	.	.
.	.	.	.	.	.	.	.	.	.	[8f/	.	.	8ff/	.	.	[8fff\	.
16AA-/Jk	.	.	.	.	.	16cc\Jk	.	16E-/Jk 16e-/	.	.	16AA-\Jk	.	.	16cc\Jk	.	.	.
4BB-/	.	.	.	4BB-/	.	4g/	.	4G/ 4e-/	.	8f/]	4BB-/	.	8ff/	4g\	.	8fff\]	.
.	.	.	.	.	.	.	.	.	.	4e-/	.	.	4ee-/	.	.	4eee-\	.
4BB-/	.	.	.	4BB-/	.	4b-X/	.	4B-/ 4f/	.	.	4BB-/	.	.	4a-\	.	.	.
.	.	.	.	.	.	.	.	.	.	8d/	.	.	8dd/	.	.	8ddd\	.
=8	=8	=8	=8	=8	=8	=8	=8	=8	=8	=8	=8	=8	=8	=8	=8	=8	=8
4E-\	.	2r	.	4E-\	.	4b-X/	.	4G/ 4e-/	.	4e-/	4E-\	.	4ee-/	4g\	.	4eee-\	.
8.G\L	.	.	.	8.G\L	.	8.b-L/	.	8.G/L 8.e-/	.	8.e-/L	8.G\L	.	8.ee-/L	8.g\L	.	8.eee-\L	.
16B-\Jk	.	.	.	16B-\Jk	.	16b-\Jk	.	16G/Jk 16e-/	.	16e-/Jk	16B-\Jk	.	16ee-/Jk	16g\Jk	.	16eee-\Jk	.
4E-\	.	4r	.	4E-\	.	4b-/	.	4G/ 4e-/	.	4e-/	4E-\	.	4ee-/	4g\	.	4eee-\	.
*	*	*	*	*	*	*	*	*	*	*v	*v	*	*	*	*	*	*
*	*	*	*	*	*	*	*	*	*	*	*	*v	*v	*	*	*
=:|!|:	=:|!|:	=:|!|:	=:|!|:	=:|!|:	=:|!|:	=:|!|:	=:|!|:	=:|!|:	=:|!|:	=:|!|:	=:|!|:	=:|!|:	=:|!|:	=:|!|:	=:|!|:
!!LO:LB:g=original
!	!	!	!	!	!	!	!	!	!	!	!	!	!	!LO:TX:a:B:i:t=dolce	!
4r	.	4r	.	4r	.	4r	.	4r	.	4r	.	8.d/L 8.f/	.	8.ff\L	p
.	.	.	.	.	.	.	.	.	.	.	.	16f/Jk 16a-/	.	[16aa-\Jk	.
=9	=9	=9	=9	=9	=9	=9	=9	=9	=9	=9	=9	=9	=9	=9	=9
!	!	!	!	!	!	!	!	!	!LO:DY:a	!	!	!	!	!	!
4r	.	1r	.	1r	.	1r	.	8.r	p	4r	.	(<2f/ 2a-/	.	2aa-\]	.
.	.	.	.	.	.	.	.	(>16d/ 16f/	.	.	.	.	.	.	.
!	!LO:DY:a	!	!	!	!	!	!	!	!	!	!	!	!	!	!
8.c-\XL	pp	.	.	.	.	.	.	4f/ 4a-/	.	(>8.c-\XL	.	.	.	.	.
16B-\Jk	.	.	.	.	.	.	.	.	.	16B-\Jk)	.	.	.	.	.
4.B-\	.	.	.	.	.	.	.	8f/) 8a-/	.	4.B-\	.	8.f/L) 8.a-/	.	8.aa-\L	.
.	.	.	.	.	.	.	.	8r	.	.	.	.	.	.	.
.	.	.	.	.	.	.	.	.	.	.	.	(<16d/Jk 16f/	.	16ff\Jk	.
.	.	.	.	.	.	.	.	4r	.	.	.	8e-/L 8g/	.	(>8gg\L	.
8A-\	.	.	.	.	.	.	.	.	.	8A-\	.	8f/J) 8a-/	.	8aa-\J	.
=10	=10	=10	=10	=10	=10	=10	=10	=10	=10	=10	=10	=10	=10	=10	=10
*	*	*	*	*	*	*	*	*^	*	*	*	*	*	*	*
4G\	.	1r	.	1r	.	1r	.	8.r	8.ryy	.	4G\	.	4e-/ 4b-/	.	4bb-\)	.
.	.	.	.	.	.	.	.	16e-\	16g\	.	.	.	.	.	.	.
8.F\L	.	.	.	.	.	.	.	4B-\	4b-\	.	8.F\L	.	8.d/L 8.a-/	.	8.aa-\L	.
16E-\Jk	.	.	.	.	.	.	.	.	.	.	16E-\Jk	.	16e-/Jk 16g/	.	16gg\Jk	.
4E-\	.	.	.	.	.	.	.	8B-\	4b-\	.	4E-\	.	4e-/ 4g/	.	4gg\	.
.	.	.	.	.	.	.	.	8r\	.	.	.	.	.	.	.	.
4r	.	.	.	.	.	.	.	4r	4ryy	.	4r	.	8.d/L 8.f/	.	8.ff\L	.
.	.	.	.	.	.	.	.	.	.	.	.	.	16f/Jk 16a-/	.	16aa-\Jk	.
*	*	*	*	*	*	*	*	*v	*v	*	*	*	*	*	*	*
=11	=11	=11	=11	=11	=11	=11	=11	=11	=11	=11	=11	=11	=11	=11	=11
4r	.	1r	.	1r	.	1r	.	8.r	.	4r	.	2f/ 2a-/	.	[2aa-\	.
.	.	.	.	.	.	.	.	(>16f/	.	.	.	.	.	.	.
8.c-\XL	.	.	.	.	.	.	.	4f/ 4a-/	.	8.c-\XL	.	.	.	.	.
16B-\Jk	.	.	.	.	.	.	.	.	.	16B-\Jk	.	.	.	.	.
4.B-\	.	.	.	.	.	.	.	8f/) 8a-/	.	4.B-\	.	8.f/L 8.a-/	.	8.aa-\L]	.
.	.	.	.	.	.	.	.	8r	.	.	.	.	.	.	.
.	.	.	.	.	.	.	.	.	.	.	.	(<16d/Jk 16f/	.	16ff\Jk	.
.	.	.	.	.	.	.	.	4r	.	.	.	8e-/L 8g/	.	(>8gg\L	.
8A-\	.	.	.	.	.	.	.	.	.	8A-\	.	8f/J) 8a-/	.	8aa-\J	.
=12	=12	=12	=12	=12	=12	=12	=12	=12	=12	=12	=12	=12	=12	=12	=12
*	*	*	*	*	*	*	*	*^	*	*^	*	*^	*	*	*
4G\	.	1r	.	2r	.	1r	.	8.r	8.ryy	.	4G/	2.ryy	.	4e-/ 4b-/	2.ryy	.	4bb-\)	.
.	.	.	.	.	.	.	.	16e-\	16g\	.	.	.	.	.	.	.	.	.
8.F\L	.	.	.	.	.	.	.	4B-\	4b-\	.	8.F/L	.	.	8.d/L 8.a-/	.	.	8.aa-\L	.
16E-\Jk	.	.	.	.	.	.	.	.	.	.	16E-/Jk	.	.	16e-/Jk 16g/	.	.	16gg\Jk	.
4E-\	.	.	.	4r	.	.	.	8B-\	4b-\	.	4E-/	.	.	4e-/ 4g/	.	.	4gg\	.
.	.	.	.	.	.	.	.	8rG\	.	.	.	.	.	.	.	.	.	.
8.GG/L	.	.	.	8.GG/L	.	.	.	8.e-L\	8.e-L/	.	8.e-/L	8.GG\L	.	8.ee-/L	8.b-\L	.	8.bb-\L	.
16AA-/Jk	.	.	.	16AA-/Jk	.	.	.	16e-Jk\	16e-Jk/	.	16e-/Jk	16AA-\Jk	.	16ee-/Jk	16cc\Jk	.	16ccc\Jk	.
=13	=13	=13	=13	=13	=13	=13	=13	=13	=13	=13	=13	=13	=13	=13	=13	=13	=13	=13
*	*	*	*	*	*	*^	*	*	*	*	*	*	*	*	*	*	*	*
!	!	!	!	!	!	!	!	!	!	!	!LO:HP:a	!	!	!	!	!	!	!	!LO:HP:a
4AA-/	<	(<16C/L	.	4AA-/	.	2cc/	2cc\	.	8.e-/L	8e-\	<	8.e-/L	4AA-\	.	8.ee-/L	8cc\	.	8ccc\	<
.	.	16C/	.	.	.	.	.	.	.	.	.	.	.	.	.	.	.	.	.
.	.	16C/	.	.	.	.	.	.	.	8r	.	.	.	.	.	4cc\	.	4ccc\	.
.	.	16C/	.	.	.	.	.	.	16e/XJk	.	.	16e-/Jk	.	.	16ee/XJk	.	.	.	.
4AA-/	.	16C/	.	4AA-/	.	.	.	.	8.e/L	4r	.	8.e-L\	4AA-\	.	8.ee/L	.	.	.	.
.	.	16C/	.	.	.	.	.	.	.	.	.	.	.	.	.	.	.	.	.
.	.	16C/	.	.	.	.	.	.	.	.	.	.	.	.	.	4cc\	.	4ccc\	.
.	.	16C/J	.	.	.	.	.	.	16f/Jk	.	.	16fJk\	.	.	16ff/Jk	.	.	.	.
4AA-/	.	16C/L	.	4AA-/	.	4..cc/	4..cc\	.	8.f/L	8r	.	8.fL\	4AA-\	.	8.ff/L	.	.	.	.
.	.	16C/	.	.	.	.	.	.	.	.	.	.	.	.	.	.	.	.	.
.	.	16C/	.	.	.	.	.	.	.	8e\	.	.	.	.	.	4cc\	.	4ccc\	.
.	.	16C/J	.	.	.	.	.	.	16f#/XJk	.	.	16f#XJk\	.	.	16ff#/XJk	.	.	.	.
8.AA-/L	[	16C/LL	.	8.AA-/L	.	.	.	.	8.f#/L	8.e\L	.	8.f#L\	8.AA-\L	.	8.ff#/L	.	.	.	.
.	.	16C/	.	.	.	.	.	.	.	.	.	.	.	.	.	.	.	.	.
.	.	16C/	.	.	.	.	.	.	.	.	.	.	.	.	.	8b\X	.	8bbn\	[[
16GG/Jk	.	16GG/JJ)	.	16GG/Jk	.	16g/	16ryy	.	16g/Jk	16G\Jk	[	16gJk\	16GG\Jk	.	16gg/Jk	.	.	.	.
*	*	*	*	*	*	*v	*v	*	*	*	*	*	*	*	*	*	*	*	*
=14	=14	=14	=14	=14	=14	=14	=14	=14	=14	=14	=14	=14	=14	=14	=14	=14	=14	=14
4GG/	.	4GG/	.	4GG/	.	4g/	.	4g/	4G\	.	4g\	4GG\	.	4gg/	4b\X	.	4bbn\	[
!	!LO:DY:a	!	!LO:DY:a	!	!	!	!	!	!	!	!	!	!	!	!	!LO:DY:a	!	!LO:DY:a
4GG/	p	4GG/	p	4r	.	4G/	.	4r	4G\	.	8.d/L	8.Bn\L	.	8.b/L 8.dd/	4ryy	p	8.bb\L	p
.	.	.	.	.	.	.	.	.	.	.	16f/Jk	16d\Jk	.	16dd/Jk 16ff/	.	.	16ddd\Jk	.
4GG/	.	4GG/	.	4r	.	4G/	.	4r	4G\	.	4g/	4e-\	.	4cc/ 4ee-/	2ryy	.	4ccc\^	.
!	!LO:DY:a	!	!LO:DY:a	!	!	!	!	!	!	!	!	!	!	!	!	!	!	!
4GG/	f	16GG/LL	f	[4GG/	.	4G/	.	4e-/^	4G\	.	(>4f#/X^	4An\	.	4cc/^ (4ee-/	.	.	(>4ccc\	.
.	.	16GG/	.	.	.	.	.	.	.	.	.	.	.	.	.	.	.	.
.	.	16GG/	.	.	.	.	.	.	.	.	.	.	.	.	.	.	.	.
.	.	16GG/JJ	.	.	.	.	.	.	.	.	.	.	.	.	.	.	.	.
*	*	*	*	*	*	*	*	*	*	*	*	*	*	*v	*v	*	*	*
=15	=15	=15	=15	=15	=15	=15	=15	=15	=15	=15	=15	=15	=15	=15	=15	=15	=15
4GG/	.	4GG/	.	4GG/]	.	4G/	.	4g/	4G\	.	4g/)	4Bn\	.	4b\X 4dd\)	.	4bbn\)	.
!	!LO:DY:a	!	!LO:DY:a	!	!	!	!	!	!	!	!	!	!LO:DY:a	!	!LO:DY:a	!	!LO:DY:a
4GG/	p	4GG/	p	4r	.	4G/	.	4r	4G\	.	8.d/L	8.B\L	p	8.b\L 8.dd\	p	8.bb\L	p
.	.	.	.	.	.	.	.	.	.	.	16f/Jk	16d\Jk	.	16dd\Jk 16ff\	.	16ddd\Jk	.
4GG/	.	4GG/	.	4r	.	4G/	.	4r	4G\	.	4e-/	4c\	.	4cc\ 4ee-\	.	4ccc\^	.
!	!LO:DY:a	!	!LO:DY:a	!	!	!	!	!	!	!	!	!	!	!	!	!	!
4GG/	f	16GG/LL	f	4GG/	.	4G/	.	4e-/^	4G\	.	(>4f#/X^	4An\	.	4cc\^ 4ee-\	.	(>4ccc\	.
.	.	16GG/	.	.	.	.	.	.	.	.	.	.	.	.	.	.	.
.	.	16GG/	.	.	.	.	.	.	.	.	.	.	.	.	.	.	.
.	.	16GG/JJ	.	.	.	.	.	.	.	.	.	.	.	.	.	.	.
=16	=16	=16	=16	=16	=16	=16	=16	=16	=16	=16	=16	=16	=16	=16	=16	=16	=16
*	*	*	*	*	*	*	*	*	*	*	*	*	*	*^	*	*	*
4GG/	.	4GG/	.	4GG/	.	4G/	.	4g/	4G\	.	4g/)	4Bn\	.	4b/X 4dd/	4ryy	.	4bbn\)	.
!	!	!	!	!	!	!	!	!	!	!	!	!	!	!	!	!LO:DY:a	!	!LO:DY:a
4GG/	.	4r	.	4r	.	4r	.	4r	4ryy	.	8.G/L 8.Bn/y	2ryy	.	8.b/L	8.g\L	p	8.bb\L	p
.	.	.	.	.	.	.	.	.	.	.	16B/Jk 16d/	.	.	16dd/Jk	16b\Jk	.	16ddd\Jk	.
!	!	!	!LO:DY:a	!	!	!	!	!	!	!LO:DY:a	!	!	!	!	!	!	!	!
4GG/	.	8.r	p	2r	.	8.r	.	8.r	8.ryy	p	4B/ 4d/	.	.	4b/ 4dd/	4ryy	.	4ddd\	.
.	.	16GG/KL	.	.	.	16gKL\	.	16g/KL	16G\KL	.	.	.	.	.	.	.	.	.
4GG/	.	8.GG/	.	.	.	8.g\	.	8.g/	8.G\	.	4r	4ryy	.	4r	4ryy	.	4r	.
.	.	16GG/Jk	.	.	.	16gJk\	.	16g/Jk	16G\Jk	.	.	.	.	.	.	.	.	.
*	*	*	*	*	*	*	*	*	*	*	*v	*v	*	*	*	*	*	*
*	*	*	*	*	*	*	*	*	*	*	*	*	*v	*v	*	*	*
=17	=17	=17	=17	=17	=17	=17	=17	=17	=17	=17	=17	=17	=17	=17	=17	=17
4GG/	.	4GG/	.	4GG/	.	4g\	.	4g/	4G\	.	4r	.	4r	.	4r	.
!	!	!	!	!	!	!	!	!	!	!	!	!	!	!	!	!LO:DY:a
4GG/	.	4r	.	4r	.	4r	.	4r	4ryy	.	8.Bn\L 8.d\	.	(>8.b\XL 8.dd\	.	(>8.ddd\L	p
.	.	.	.	.	.	.	.	.	.	.	16d\Jk 16f\	.	16dd\Jk) 16ff\	.	16fff\Jk)	.
4GG/	.	8.r	.	2r	.	8.r	.	8.r	8.ryy	.	4d\ 4f\	.	4dd\ 4ff\	.	4fff\	.
.	.	16GG/KL	.	.	.	16gKL\	.	16g/KL	16G\KL	.	.	.	.	.	.	.
4GG/	.	8.GG/	.	.	.	8.g\	.	8.g/	8.G\	.	4r	.	4r	.	4r	.
.	.	16GG/Jk	.	.	.	16gJk\	.	16g/Jk	16G\Jk	.	.	.	.	.	.	.
=18	=18	=18	=18	=18	=18	=18	=18	=18	=18	=18	=18	=18	=18	=18	=18	=18
*	*	*	*	*	*	*	*	*	*	*	*	*	*^	*	*	*
!!LO:LB:g=original
4GG/	.	16GG/LL	.	4GG/	.	4g/	.	4g/	4G\	.	4r	.	4r	4ryy	.	4r	.
.	.	16GG/	.	.	.	.	.	.	.	.	.	.	.	.	.	.	.
.	.	16GG/	.	.	.	.	.	.	.	.	.	.	.	.	.	.	.
.	.	16GG/	.	.	.	.	.	.	.	.	.	.	.	.	.	.	.
4GG/	.	16GG/	.	4r	.	4r	.	4r	4ryy	.	8.d\L 8.f\	.	8.ddL\	8.ffL\	.	8.fff\L	.
.	.	16GG/	.	.	.	.	.	.	.	.	.	.	.	.	.	.	.
.	.	16GG/	.	.	.	.	.	.	.	.	.	.	.	.	.	.	.
.	.	16GG/	.	.	.	.	.	.	.	.	16Bn\Jk 16d\	.	16ffJk\	16aa-J\	.	16aaa-\Jk	.
4GG/	.	16GG/	.	2r	.	8.r	.	8.rG	2ryy	.	2B\ 2d\	.	[2ff\	(>4..aa-/	.	(>4..aaa-\	.
.	.	16GG/	.	.	.	.	.	.	.	.	.	.	.	.	.	.	.
.	.	16GG/	.	.	.	.	.	.	.	.	.	.	.	.	.	.	.
.	.	16GG/	.	.	.	16G/KL	.	16GKL\ 16g\	.	.	.	.	.	.	.	.	.
4GG/	.	16GG/	.	.	.	8.G/	.	8.G\ 8.g\	.	.	.	.	.	.	.	.	.
.	.	16GG/	.	.	.	.	.	.	.	.	.	.	.	.	.	.	.
.	.	16GG/	.	.	.	.	.	.	.	.	.	.	.	.	.	.	.
.	.	16GG/JJ	.	.	.	16G/Jk	.	16G/Jk 16g/	.	.	.	.	.	16gg/	.	16ggg\	.
*	*	*	*	*	*	*	*	*v	*v	*	*	*	*	*	*	*	*
=19	=19	=19	=19	=19	=19	=19	=19	=19	=19	=19	=19	=19	=19	=19	=19	=19
*	*	*	*	*	*	*	*	*^	*	*^	*	*	*	*	*	*
[2GG/	.	4GG/	.	[2GG/	.	2G/	.	2G\	[>2g\	.	4d\	4.Bn\	.	4gg/)	4.ff\]	.	4ggg\)	.
.	.	4r	.	.	.	.	.	.	.	.	8.a-/L	.	.	8.aa-/L	.	.	4r	.
.	.	.	.	.	.	.	.	.	.	.	.	8Bn\	.	.	8dd\	.	.	.
.	.	.	.	.	.	.	.	.	.	.	16g/Jk	.	.	16gg/Jk	.	.	.	.
4GG/]	.	2r	.	4GG/]	.	4G/	.	4G\	4g]\	.	(<8f#/XL	4B\	.	(>8.ff#/XL	4dd\	.	2r	.
.	.	.	.	.	.	.	.	.	.	.	8g/J	.	.	.	.	.	.	.
.	.	.	.	.	.	.	.	.	.	.	.	.	.	16gg/Jk	.	.	.	.
4r	.	.	.	4r	.	4r	.	4r	4ryy	.	16f#/LL	4r	.	16ff#/LL	4r	.	.	.
.	.	.	.	.	.	.	.	.	.	.	16g/	.	.	16gg/	.	.	.	.
.	.	.	.	.	.	.	.	.	.	.	16a-/	.	.	16aa-/	.	.	.	.
.	.	.	.	.	.	.	.	.	.	.	16g/JJ)	.	.	16gg/JJ)	.	.	.	.
*	*	*	*	*	*	*	*	*v	*v	*	*	*	*	*	*	*	*	*
=20	=20	=20	=20	=20	=20	=20	=20	=20	=20	=20	=20	=20	=20	=20	=20	=20	=20
2r	.	1r	.	2r	.	1r	.	1r	.	4.g/	2r	.	4.gg\	2r	.	1r	.
.	.	.	.	.	.	.	.	.	.	8e-/	.	.	8ee-\	.	.	.	.
4r	.	.	.	4r	.	.	.	.	.	4c/	4r	.	4cc\	4r	.	.	.
8.C/L	.	.	.	8.CL\	.	.	.	.	.	8.C/L	8.C\L	.	8.c/L	8.c\L	.	.	.
16C/Jk	.	.	.	16CJk\	.	.	.	.	.	16C/Jk	16C\Jk	.	16c/Jk	16c\Jk	.	.	.
*	*	*	*	*	*	*	*	*	*	*v	*v	*	*	*	*	*	*
=21	=21	=21	=21	=21	=21	=21	=21	=21	=21	=21	=21	=21	=21	=21	=21	=21
*	*	*	*	*	*	*	*	*^	*	*	*	*	*	*	*	*
!	!LO:HP:a	!	!	!	!LO:HP:a	!	!	!	!	!LO:HP:a	!	!LO:HP:a	!	!	!LO:HP:a	!	!
2.E-\	>	4r	.	2.E-\	>	1r	.	2.e-/	2.e-\	>	2.E-\	>	2.e-/	2.e-\	>	2r	.
*	*	*Xtremolo	*	*	*	*	*	*	*	*	*	*	*	*	*	*	*
.	]	16C/LL	.	.	]	.	.	.	.	]	.	]	.	.	]	.	.
.	.	16C/	.	.	.	.	.	.	.	.	.	.	.	.	.	.	.
.	.	16C/	.	.	.	.	.	.	.	.	.	.	.	.	.	.	.
.	.	16C/JJ	.	.	.	.	.	.	.	.	.	.	.	.	.	.	.
.	.	8C/	.	.	.	.	.	.	.	.	.	.	.	.	.	4r	.
.	.	8r	.	.	.	.	.	.	.	.	.	.	.	.	.	.	.
!	!	!	!	!	!	!	!	!	!	!	!	!	!	!	!	!LO:TX:a:B:i:t=dolce	!
4r	.	4r	.	4r	.	.	.	4r	4ryy	.	8.E-\L 8.G\	.	(>8.e-L\ 8.g\	4ryy	.	(>8.gg\L	.
.	.	.	.	.	.	.	.	.	.	.	16G\Jk 16e-\	.	16gJk)\ 16ee-\	.	.	16eee-\Jk)	.
*	*	*	*	*	*	*	*	*	*	*	*	*	*v	*v	*	*	*
=22	=22	=22	=22	=22	=22	=22	=22	=22	=22	=22	=22	=22	=22	=22	=22	=22
!	!	!	!	!	!LO:DY:a	!	!LO:DY:a	!	!	!LO:DY:a	!	!	!	!	!	!
8.r	.	8.r	.	4C/	p	8.r	p	2e-/	2e-\	p	2G\ 2e-\	.	2g\ 2ee-\	.	2eee-\	.
16CKL\	.	16C/KL	.	.	.	16c/KL	.	.	.	.	.	.	.	.	.	.
8.E-\	.	8.C/	.	4r	.	8.c/	.	.	.	.	.	.	.	.	.	.
16C/Jk	.	16C/Jk	.	.	.	16c/Jk	.	.	.	.	.	.	.	.	.	.
!LO:TX:a:t=P:mixed beam:problem	!	!	!	!	!	!	!	!	!	!	!	!	!	!	!	!
8.GL/	.	8.r	.	4GG/	.	8.r	.	2g/	2g\	.	2F\ 2d\	.	2f/ [2dd/	.	[2ddd\	.
16GG/K	.	16GG/KL	.	.	.	16g/KL	.	.	.	.	.	.	.	.	.	.
8.BBn/	.	8.GG/	.	4r	.	8.g/	.	.	.	.	.	.	.	.	.	.
16GG/Jk	.	16GG/Jk	.	.	.	16g/Jk	.	.	.	.	.	.	.	.	.	.
=23	=23	=23	=23	=23	=23	=23	=23	=23	=23	=23	=23	=23	=23	=23	=23	=23
4.C\	.	16C/LL	.	4.C\	.	4g/	.	2g/	2g\	.	4F\ 4d\	.	4f\ 4dd\]	.	4ddd\]	.
.	.	16C/	.	.	.	.	.	.	.	.	.	.	.	.	.	.
.	.	16C/	.	.	.	.	.	.	.	.	.	.	.	.	.	.
.	.	16C/JJ	.	.	.	.	.	.	.	.	.	.	.	.	.	.
.	.	8C/	.	.	.	4r	.	.	.	.	4E-\ 4c\	.	4e-\ 4cc\	.	4ccc\	.
8E-\	.	8r	.	8E-\	.	.	.	.	.	.	.	.	.	.	.	.
!	!LO:HP:a	!	!	!	!LO:HP:a	!	!	!	!	!	!	!	!	!	!	!
4.A-\	>	2r	.	4.A-\	>	2r	.	4.a-/	4.a-\	.	4D\ 4Bn\	.	4d\ 4b\X	.	4bbn\	.
.	]	.	.	.	]	.	.	.	.	.	4E-\ 4c\	.	4e-\ 4cc\	.	[4ccc\	.
8G\	.	.	.	8G\	.	.	.	8g/	8g\	.	.	.	.	.	.	.
=24	=24	=24	=24	=24	=24	=24	=24	=24	=24	=24	=24	=24	=24	=24	=24	=24
8.F#\XL	.	2r	.	8.F#\XL	.	2r	.	8.f#/XL	8.f#\L	.	8.E-\L 8.c\	.	8.e-L\ 8.cc\	.	8.ccc\L]	.
16G\K	.	.	.	16G\K	.	.	.	16g/K	16g\K	.	16D\Jk 16Bn\	.	16d/Jk 16b/X	.	16bbn\Jk	.
8.A-\	.	.	.	8.A-\	.	.	.	8.a-/	8.a-\	.	2D\ 2B\	.	2d\ 2b\	.	2bb\	.
16G\Jk	.	.	.	16G\Jk	.	.	.	16g/Jk	16g\Jk	.	.	.	.	.	.	.
!	!	!	!LO:DY:a	!	!	!	!	!	!	!	!	!	!	!	!	!
4G\	.	8.r	p	4G\	.	8.r	.	4g/	8.G\L 8.g\	.	.	.	.	.	.	.
.	.	16GG/KL	.	.	.	16g/	.	.	16G\K 16g\	.	.	.	.	.	.	.
4r	.	8.GG/	.	4r	.	8.g/L	.	4ryy	8.G\ 8.g\	.	4r	.	4r	.	4r	.
.	.	16GG/Jk	.	.	.	(<16g/Jk	.	.	16G\Jk 16g\	.	.	.	.	.	.	.
*	*	*	*	*	*	*	*	*v	*v	*	*	*	*	*	*	*
=25	=25	=25	=25	=25	=25	=25	=25	=25	=25	=25	=25	=25	=25	=25	=25
8.r	.	2GG/	.	4r	.	2g/)	.	2G\ [2g\	.	(>4.Bn\ 4.d\	.	(>4.b\X 4.dd\	.	(>4.ddd\	.
16GG/KL	.	.	.	.	.	.	.	.	.	.	.	.	.	.	.
8.BBn/	.	.	.	4GG/	.	.	.	.	.	.	.	.	.	.	.
.	.	.	.	.	.	.	.	.	.	16c\LL 16e-\	.	16cc\LL 16ee-\	.	16eee-\LL	.
16GG/Jk	.	.	.	.	.	.	.	.	.	16d\JJ) 16f\	.	16dd\JJ) 16ff\	.	16fff\JJ)	.
4C/	.	8.GG/L	.	4C/	.	8.g/L	.	8.GL\ 8.g\]	.	4c\ 4e-\	.	4cc\ 4ee-\	.	4eee-\	.
.	.	16GG/K	.	.	.	(<16g/Jk	.	16G/K 16g/	.	.	.	.	.	.	.
4r	.	8.GG/	.	4r	.	8.g/L	.	8.G/ 8.g/	.	4r	.	4r	.	4r	.
.	.	16GG/Jk	.	.	.	16g/Jk	.	16G/Jk 16g/	.	.	.	.	.	.	.
=26	=26	=26	=26	=26	=26	=26	=26	=26	=26	=26	=26	=26	=26	=26	=26
*	*	*	*	*	*	*	*	*^	*	*	*	*	*	*	*
*	*	*tremolo	*	*	*	*	*	*	*	*	*	*	*	*	*	*
8.r	.	16GG/LL	.	4r	.	2g/)	.	2G\	2g\	.	(>4.Bn\ 4.d\	.	(>4.b\X 4.dd\	.	(>4.ddd\	.
.	.	16GG/	.	.	.	.	.	.	.	.	.	.	.	.	.	.
.	.	16GG/	.	.	.	.	.	.	.	.	.	.	.	.	.	.
16GG/KL	.	16GG/	.	.	.	.	.	.	.	.	.	.	.	.	.	.
8.BBn/	.	16GG/	.	4GG/	.	.	.	.	.	.	.	.	.	.	.	.
.	.	16GG/	.	.	.	.	.	.	.	.	.	.	.	.	.	.
.	.	16GG/	.	.	.	.	.	.	.	.	16c\LL 16e-\	.	16cc\LL 16ee-\	.	16eee-\LL	.
16GG/Jk	.	16GG/JJ	.	.	.	.	.	.	.	.	16d\JJ) 16f\	.	16dd\JJ) 16ff\	.	16fff\JJ)	.
4C/	.	8C/	.	4C/	.	4g/	.	4e-\	4a-\	.	4c\ 4e-\	>	4cc\ 4ee-\	>	4eee-\	>
.	.	8r	.	.	.	.	.	.	.	.	.	.	.	.	.	.
4AA-/	.	16C/LL	.	4AA-/	.	4cc\^	.	4e-\	4e-/	.	4A-\ 4e-\	]	4cc\ 4ee-\	]	[4eee-\	]
.	.	16C/	.	.	.	.	.	.	.	.	.	.	.	.	.	.
.	.	16C/	.	.	.	.	.	.	.	.	.	.	.	.	.	.
.	.	16C/JJ	.	.	.	.	.	.	.	.	.	.	.	.	.	.
*	*	*	*	*	*	*	*	*v	*v	*	*	*	*	*	*	*
=27	=27	=27	=27	=27	=27	=27	=27	=27	=27	=27	=27	=27	=27	=27	=27
*	*	*	*	*	*	*	*	*	*	*^	*	*^	*	*	*
!!LO:LB:g=original
4FF/	.	8C/	.	4F\	.	4cc\	.	4f/	.	4.e-/	4F\	.	4.ee-/	4a-\	f	4.eee-\]	f
.	.	8r	.	.	.	.	.	.	.	.	.	.	.	.	.	.	.
8.F\L	.	4r	.	4F\	.	8.c/L	.	8.f/L 8.a-/	.	.	8.F\L	.	.	8.a-\L	.	.	.
.	.	.	.	.	.	.	.	.	.	8d/	.	.	8dd/	.	.	8ddd\	.
16F\Jk	.	.	.	.	.	16c/Jk	.	16f/Jk 16a-/	.	.	16F\Jk	.	.	16a-\Jk	.	.	.
4G\	.	8.r	.	4G\	.	4c/	.	4g/	.	8d/	4G\	.	8dd/	4e-\	.	8ddd\	.
.	.	.	.	.	.	.	.	.	.	4c/	.	.	4cc/	.	.	4ccc\	.
.	.	16GG/KL	.	.	.	.	.	.	.	.	.	.	.	.	.	.	.
4G\	.	8.GG/	.	4G\	.	4g/	.	4g/	.	.	4G\	.	.	4f\	.	.	.
.	.	.	.	.	.	.	.	.	.	8Bn/	.	.	8b/X	.	.	8bbn\	.
.	.	16GG/Jk	.	.	.	.	.	.	.	.	.	.	.	.	.	.	.
=28	=28	=28	=28	=28	=28	=28	=28	=28	=28	=28	=28	=28	=28	=28	=28	=28	=28
!	!	!	!	!	!	!	!	!	!	!	!	!	!	!	!	!LO:TX:a:t=P:oznaczenie volt w każdym głosie:problem	!
4C/	.	4C/	.	4C/	.	4c/	.	4e-/ 4g/	.	4c/	4C\	.	4cc/	4e-\	.	4ccc\	.
8.E-\L	.	8.C/L	.	8.E-\L	.	8.c/L	.	8.e-/L 8.g/	.	8.c/L	8.E-\L	.	8.cc/L	8.e-\L	.	8.ccc\L	.
16G\Jk	.	16C/Jk	.	16G\Jk	.	16c/Jk	.	16e-/Jk 16g/	.	16c/Jk	16G\Jk	.	16cc/Jk	16e-\Jk	.	16ccc\Jk	.
4C/	.	4C/	.	4C/	.	4c/	.	4e-/ 4g/	.	4c/	4C\	.	4cc/	4e-\	.	4ccc\	.
*	*	*	*	*	*	*	*	*	*	*	*	*	*v	*v	*	*	*
=29:|!	=29:|!	=29:|!	=29:|!	=29:|!	=29:|!	=29:|!	=29:|!	=29:|!	=29:|!	=29:|!	=29:|!	=29:|!	=29:|!	=29:|!	=29:|!	=29:|!
*	*	*	*	*	*	*	*	*^	*	*	*	*	*	*	*	*
[1A-\	.	4C/	.	4A-\	.	4cc\	.	4e-/	4e-\	.	4c/	4A-\	.	4e-\ 4cc\	.	4ccc\	.
.	.	4r	.	4r	.	4r	.	4r	4ryy	.	4r	4ryy	.	8.a-/L 8.cc/	.	4r	.
.	.	.	.	.	.	.	.	.	.	.	.	.	.	16a-/Jk 16cc/	.	.	.
.	.	2r	.	2r	.	2r	.	2r	2ryy	.	4r	4ryy	.	2cc\ 2ee-\	.	2r	.
.	.	.	.	.	.	.	.	.	.	.	8.c/L	8.A-\L	.	.	.	.	.
.	.	.	.	.	.	.	.	.	.	.	16c/Jk	16A-\Jk	.	.	.	.	.
*	*	*	*	*	*	*	*	*v	*v	*	*	*	*	*	*	*	*
=30	=30	=30	=30	=30	=30	=30	=30	=30	=30	=30	=30	=30	=30	=30	=30	=30
1A-\_	.	1r	.	1r	.	1r	.	1r	.	2.e-/	2.c\	.	4cc\ 4ee-\	.	2r	.
.	.	.	.	.	.	.	.	.	.	.	.	.	8.a-/L 8.cc/	.	.	.
.	.	.	.	.	.	.	.	.	.	.	.	.	16a-/Jk 16cc/	.	.	.
.	.	.	.	.	.	.	.	.	.	.	.	.	2cc\ 2ee-\	.	4r	.
.	.	.	.	.	.	.	.	.	.	8.A-/L 8.c/	4ryy	.	.	.	8.ccc\L	.
.	.	.	.	.	.	.	.	.	.	16A-/Jk 16c/	.	.	.	.	16ccc\Jk	.
*	*	*	*	*	*	*	*	*	*	*v	*v	*	*	*	*	*
=31	=31	=31	=31	=31	=31	=31	=31	=31	=31	=31	=31	=31	=31	=31	=31
2A-\]	.	1r	.	2r	.	1r	.	4r	.	(>1c\ 1e-\	.	2cc\ 2ee-\	.	(>1eee-\	.
!	!	!	!	!	!	!	!	!	!LO:HP:a	!	!	!	!	!	!
.	.	.	.	.	.	.	.	8.e-/L	<	.	.	.	.	.	.
.	.	.	.	.	.	.	.	16e-/Jk	.	.	.	.	.	.	.
!	!LO:HP:a	!	!	!	!	!	!	!	!	!	!	!	!	!	!
4A-\	<	.	.	4r	.	.	.	4e-/	.	.	.	2cc\ [2aa-\	.	.	<
!	!	!	!	!	!LO:HP:a	!	!	!	!	!	!	!	!	!	!
8.A-\L	.	.	.	8.A-\L	<	.	.	4e-/	.	.	.	.	.	.	.
16G\Jk	[	.	.	16G\Jk	[[	.	.	.	.	.	.	.	.	.	.
=32	=32	=32	=32	=32	=32	=32	=32	=32	=32	=32	=32	=32	=32	=32	=32
*	*	*	*	*	*	*	*	*	*	*	*	*^	*	*	*
!	!LO:DY:a	!	!	!	!	!	!	!	!LO:DY:a	!	!	!	!	!	!	!
2.F\	fp	1r	.	2.F\	.	1r	.	2.d-/X 2.f/	f[	2.d-\X) 2.f\	.	4.aa-/]	(<2dd-\X	.	2.ddd-\X)	f[
.	.	.	.	.	.	.	.	.	.	.	.	8ff/	.	.	.	.
.	.	.	.	.	.	.	.	.	.	.	.	4dd-/X	4f\)	.	.	.
4r	.	.	.	4r	.	.	.	4r	.	4r	.	4r	4ryy	.	4r	.
=33	=33	=33	=33	=33	=33	=33	=33	=33	=33	=33	=33	=33	=33	=33	=33	=33
!	!LO:DY:a	!	!	!	!	!	!	!	!	!	!	!	!	!	!	!
4G\	p	2r	.	4G\	.	2r	.	4r	.	4r	.	4.cc/	4.e-\	.	4r	.
4r	.	.	.	4r	.	.	.	4g/	.	4c\ 4e-\	.	.	.	.	4ccc\	.
.	.	.	.	.	.	.	.	.	.	.	.	32ddn/LLL	32f\LLL	.	.	.
.	.	.	.	.	.	.	.	.	.	.	.	32cc/	32e-\	.	.	.
.	.	.	.	.	.	.	.	.	.	.	.	32b/X	32dn\	.	.	.
.	.	.	.	.	.	.	.	.	.	.	.	32cc/JJJ	32e-\JJJ	.	.	.
4G\	.	8.r	.	4G\	.	8.r	.	4r	.	4r	.	4ee-/	4g\	.	4r	.
!	!	!	!LO:DY:a	!	!	!	!LO:DY:a	!	!	!	!	!	!	!	!	!
.	.	16GG/KL	pp	.	.	16g/KL	pp	.	.	.	.	.	.	.	.	.
4r	.	8.GG/	.	4r	.	8.g/	.	4g/	.	4G\ 4dn\	.	4dd/	4f\	.	4bbn\	.
.	.	16GG/Jk	.	.	.	16g/Jk	.	.	.	.	.	.	.	.	.	.
=34	=34	=34	=34	=34	=34	=34	=34	=34	=34	=34	=34	=34	=34	=34	=34	=34
[1A-\	.	4C/	.	4A-\	.	4cc\	.	4e-/	.	4A-\ 4c\	.	4cc/	4e-\	.	4ccc\	.
.	.	4r	.	4r	.	4r	.	4r	.	4r	.	8.a-/L 8.cc/	4ryy	.	4r	.
.	.	.	.	.	.	.	.	.	.	.	.	16a-/Jk 16cc/	.	.	.	.
.	.	2r	.	2r	.	2r	.	2r	.	4r	.	2cc/ 2ee-/	2ryy	.	2r	.
.	.	.	.	.	.	.	.	.	.	8.A-\L 8.c\	.	.	.	.	.	.
.	.	.	.	.	.	.	.	.	.	16A-\Jk 16c\	.	.	.	.	.	.
*	*	*	*	*	*	*	*	*	*	*	*	*v	*v	*	*	*
=35	=35	=35	=35	=35	=35	=35	=35	=35	=35	=35	=35	=35	=35	=35	=35
1A-\]	.	1r	.	1r	.	1r	.	1r	.	2.c\ 2.e-\	.	4cc\ 4ee-\	.	2r	.
.	.	.	.	.	.	.	.	.	.	.	.	8.a-/L 8.cc/	.	.	.
.	.	.	.	.	.	.	.	.	.	.	.	16a-/Jk 16cc/	.	.	.
.	.	.	.	.	.	.	.	.	.	.	.	2cc\ [2ee-\	.	4r	.
.	.	.	.	.	.	.	.	.	.	8.A-\L 8.c\	.	.	.	8.ccc\L	.
.	.	.	.	.	.	.	.	.	.	16A-\Jk 16c\	.	.	.	16ccc\Jk	.
=36	=36	=36	=36	=36	=36	=36	=36	=36	=36	=36	=36	=36	=36	=36	=36
2A-\	.	1r	.	2r	.	1r	.	4r	.	1c\ 1e-\	.	2cc\ 2ee-\]	.	(>1eee-\	.
!	!	!	!	!	!	!	!	!	!LO:HP:a	!	!	!	!	!	!
.	.	.	.	.	.	.	.	8.e-/L	<	.	.	.	.	.	.
.	.	.	.	.	.	.	.	16e-/Jk	.	.	.	.	.	.	<
!	!LO:HP:a	!	!	!	!	!	!	!	!	!	!	!	!	!	!
4A-\	<	.	.	4r	.	.	.	4e-/	.	.	.	2cc\ 2aa-\	.	.	.
8.A-\L	.	.	.	8.A-\L	.	.	.	4e-/	[[	.	.	.	.	.	.
16G\Jk	[	.	.	16G\Jk	.	.	.	.	.	.	.	.	.	.	.
=37	=37	=37	=37	=37	=37	=37	=37	=37	=37	=37	=37	=37	=37	=37	=37
*	*	*	*	*	*	*	*	*	*	*	*	*^	*	*	*
2.F\	.	1r	.	2.F\	.	1r	.	2.d-/X 2.f/	[	2.d-\X 2.f\	.	(>4.aa-\	2dd-\X	.	2.ddd-\X)	f[
.	.	.	.	.	.	.	.	.	.	.	.	8ff\	.	.	.	.
.	.	.	.	.	.	.	.	.	.	.	.	4dd-)\	4f\	.	.	.
4r	.	.	.	4r	.	.	.	4r	.	4r	.	4r	4ryy	.	4r	.
=38	=38	=38	=38	=38	=38	=38	=38	=38	=38	=38	=38	=38	=38	=38	=38	=38
*	*	*	*	*	*	*	*	*^	*	*^	*	*	*	*	*	*
!!LO:LB:g=original
!	!	!	!	!	!LO:DY:a	!	!	!	!	!	!	!	!	!	!	!	!	!LO:DY:a
2.G\	p	1r	.	2.G\	p	(<2.G/	.	2.g/	2.e-\	.	(>4.g\	2.c\	p	(>4.gg\	2.e-\	.	(>4.ggg\	p
.	.	.	.	.	.	.	.	.	.	.	8e-\	.	.	8ee-\	.	.	8eee-\	.
.	.	.	.	.	.	.	.	.	.	.	4c)\	.	.	4cc)\	.	.	4ccc\)	.
4r	.	.	.	4r	.	4r	.	4r	4ryy	.	4r	4r	.	4r	4ryy	.	4r	.
=39	=39	=39	=39	=39	=39	=39	=39	=39	=39	=39	=39	=39	=39	=39	=39	=39	=39	=39
!	!	!	!	!	!LO:DY:a	!	!	!	!	!	!	!	!	!	!	!	!	!LO:DY:a
2.GG/	.	2r	.	2.G\	pp	2.G/)	.	2.g/	2.g\	.	(>4.f\	2.G\	pp	(>4.ff\	2.d\	.	(>4.fff\	pp
.	.	.	.	.	.	.	.	.	.	.	8d\	.	.	8dd\	.	.	8ddd\	.
.	.	4r	.	.	.	.	.	.	.	.	4Bn)\	.	.	4bX)\	.	.	4bbn\)	.
*	*	*Xtremolo	*	*	*	*	*	*	*	*	*	*	*	*	*	*	*	*
!	!	!	!LO:DY:a	!	!	!	!	!	!	!	!	!	!	!	!	!	!	!
4r	.	16GG/LL	pp	4r	.	4r	.	4r	4r	.	4r	4r	.	4r	4ryy	.	4r	.
.	.	16GG/	.	.	.	.	.	.	.	.	.	.	.	.	.	.	.	.
.	.	(>16GG/	.	.	.	.	.	.	.	.	.	.	.	.	.	.	.	.
.	.	16GG/JJ	.	.	.	.	.	.	.	.	.	.	.	.	.	.	.	.
*	*	*	*	*	*	*	*	*v	*v	*	*	*	*	*v	*v	*	*	*
=40	=40	=40	=40	=40	=40	=40	=40	=40	=40	=40	=40	=40	=40	=40	=40	=40
2r	.	8GG/L	.	2r	.	1r	.	1r	.	1r	2r	.	1r	.	1r	.
.	.	16GG/L	.	.	.	.	.	.	.	.	.	.	.	.	.	.
.	.	16GG/JJ)	.	.	.	.	.	.	.	.	.	.	.	.	.	.
.	.	16GG/LL	.	.	.	.	.	.	.	.	.	.	.	.	.	.
.	.	16GG/	.	.	.	.	.	.	.	.	.	.	.	.	.	.
.	.	16GG/	.	.	.	.	.	.	.	.	.	.	.	.	.	.
.	.	16GG/JJ	.	.	.	.	.	.	.	.	.	.	.	.	.	.
4r	.	8GG/	.	4r	.	.	.	.	.	.	4r	.	.	.	.	.
.	.	8r	.	.	.	.	.	.	.	.	.	.	.	.	.	.
8.C/L	.	4r	.	8.C/L	.	.	.	.	.	.	8.C\L	.	.	.	.	.
16C/Jk	.	.	.	16C/Jk	.	.	.	.	.	.	16C\Jk	.	.	.	.	.
=41	=41	=41	=41	=41	=41	=41	=41	=41	=41	=41	=41	=41	=41	=41	=41	=41
*	*	*	*	*	*	*	*	*^	*	*	*	*	*^	*	*	*
2.E-\^	.	4r	.	2.E-\^	.	4r	.	4r	4ryy	.	4r	2.E-\	>	4r	4ryy	.	4r	.
!	!	!	!	!	!	!	!LO:DY:a	!	!	!	!	!	!	!	!	!	!	!
.	.	16C/LL	.	.	.	2.c/	p	2.e-/	2.e-\	.	(<4f#/X	.	.	2.ee-/	2.cc\	.	(>4ff#\X	.
.	.	16C/	.	.	.	.	.	.	.	.	.	.	.	.	.	.	.	.
.	.	16C/	.	.	.	.	.	.	.	.	.	.	.	.	.	.	.	.
.	.	16C/JJ	.	.	.	.	.	.	.	.	.	.	.	.	.	.	.	.
.	.	8C/	.	.	.	.	.	.	.	.	2g/)	.	]	.	.	.	2gg\)	.
.	.	8r	.	.	.	.	.	.	.	.	.	.	.	.	.	.	.	.
8.C/L	.	4r	.	8.CL\	.	.	.	.	.	.	.	8.C\L	]	.	.	.	.	.
16C/Jk	.	.	.	16CJk\	.	.	.	.	.	.	.	16C\Jk	.	.	.	.	.	.
=42	=42	=42	=42	=42	=42	=42	=42	=42	=42	=42	=42	=42	=42	=42	=42	=42	=42	=42
2.E-\^	.	4r	.	2.E-\^	.	4r	.	4r	4ryy	.	4r	2.E-\	>	4r	4ryy	.	4r	.
.	.	16C/LL	.	.	.	2.c/	.	2.e-/	2.e-\	.	(<4f#/X	.	.	2.ee-/	2.cc\	.	(>4ff#\X	.
.	.	16C/	.	.	.	.	.	.	.	.	.	.	]	.	.	.	.	.
.	.	16C/	.	.	.	.	.	.	.	.	.	.	.	.	.	.	.	.
.	.	16C/JJ	.	.	.	.	.	.	.	.	.	.	.	.	.	.	.	.
.	.	8C/	.	.	.	.	.	.	.	.	2g/)	.	.	.	.	.	2gg\)	.
.	.	8r	.	.	.	.	.	.	.	.	.	.	.	.	.	.	.	.
8.C/L	.	4r	.	8.CL\	.	.	.	.	.	.	.	8.C\L	.	.	.	.	.	.
16C/Jk	.	.	.	16CJk\	.	.	.	.	.	.	.	16C\Jk	.	.	.	.	.	.
=43	=43	=43	=43	=43	=43	=43	=43	=43	=43	=43	=43	=43	=43	=43	=43	=43	=43	=43
2.E-\^	.	4r	.	2.E-\^	.	4r	.	4r	4ryy	.	4r	2.E-\	>	4r	4ryy	.	4r	.
!	!	!	!	!	!	!	!	!	!	!	!	!	!	!	!	!	!	!LO:HP:a
.	.	16C/LL	.	.	.	2.c/	.	2.e-/	2.e-\	.	(<4f#/X	.	.	2ee-/	2cc\	.	(>4ff#\X	>
.	.	16C/	.	.	.	.	.	.	.	.	.	.	]	.	.	.	.	.
.	.	16C/	.	.	.	.	.	.	.	.	.	.	.	.	.	.	.	.
.	.	16C/JJ	.	.	.	.	.	.	.	.	.	.	.	.	.	.	.	.
.	.	8C/	.	.	.	.	.	.	.	.	[2g/)	.	.	.	.	.	2gg\)	.
.	.	8r	.	.	.	.	.	.	.	.	.	.	.	.	.	.	.	.
4r	>	4r	.	4r	.	.	.	.	.	.	.	4r	.	[4cc/	4e-\	.	.	.
*	*	*	*	*	*	*	*	*v	*v	*	*	*	*	*	*	*	*	*
=44	=44	=44	=44	=44	=44	=44	=44	=44	=44	=44	=44	=44	=44	=44	=44	=44	=44
*	*	*tremolo	*	*	*	*	*	*	*	*	*	*	*	*	*	*	*
1G\	.	16GG/LL	.	1G\	.	1G/	.	1g/	.	2.g/]	1G\	.	2cc/]	1d\	.	2.gg\	.
.	.	16GG/	.	.	.	.	.	.	.	.	.	.	.	.	.	.	.
.	.	16GG/	.	.	.	.	.	.	.	.	.	.	.	.	.	.	.
.	.	16GG/	.	.	.	.	.	.	.	.	.	.	.	.	.	.	.
.	.	16GG/	.	.	.	.	.	.	.	.	.	.	.	.	.	.	.
.	.	16GG/	.	.	.	.	.	.	.	.	.	.	.	.	.	.	.
.	.	16GG/	.	.	.	.	.	.	.	.	.	.	.	.	.	.	.
.	.	16GG/	.	.	.	.	.	.	.	.	.	.	.	.	.	.	.
.	.	16GG/	.	.	.	.	.	.	.	.	.	.	2b/X	.	.	.	.
.	.	16GG/	.	.	.	.	.	.	.	.	.	.	.	.	.	.	.
.	.	16GG/	.	.	.	.	.	.	.	.	.	.	.	.	.	.	.
.	.	16GG/	.	.	.	.	.	.	.	.	.	.	.	.	.	.	.
.	.	16GG/	.	.	.	.	.	.	.	4fn/	.	.	.	.	.	4ff\	.
.	.	16GG/	.	.	.	.	.	.	.	.	.	.	.	.	.	.	.
.	.	16GG/	.	.	.	.	.	.	.	.	.	.	.	.	.	.	.
.	.	16GG/JJ	.	.	.	.	.	.	.	.	.	.	.	.	.	.	.
=45	=45	=45	=45	=45	=45	=45	=45	=45	=45	=45	=45	=45	=45	=45	=45	=45	=45
[>1C/	]]	[16C/LL	.	[1C/	.	4c/	.	1g/	.	1en/	1C\	.	1cc/	1e\X	.	(>1een\	.
.	.	16C/	.	.	.	.	.	.	.	.	.	.	.	.	.	.	.
.	.	16C/	.	.	.	.	.	.	.	.	.	.	.	.	.	.	.
.	.	16C/	.	.	.	.	.	.	.	.	.	.	.	.	.	.	.
.	.	16C/	.	.	.	8.c/L	.	.	.	.	.	.	.	.	.	.	.
.	.	16C/	.	.	.	.	.	.	.	.	.	.	.	.	.	.	.
.	.	16C/	.	.	.	.	.	.	.	.	.	.	.	.	.	.	.
.	.	16C/	.	.	.	16c/Jk	.	.	.	.	.	.	.	.	.	.	.
.	.	16C/	.	.	.	4c/	.	.	.	.	.	.	.	.	.	.	.
.	.	16C/	.	.	.	.	.	.	.	.	.	.	.	.	.	.	.
.	.	16C/	.	.	.	.	.	.	.	.	.	.	.	.	.	.	.
.	.	16C/	.	.	.	.	.	.	.	.	.	.	.	.	.	.	.
.	.	16C/	.	.	.	4r	.	.	.	.	.	.	.	.	.	.	]
.	.	16C/	.	.	.	.	.	.	.	.	.	.	.	.	.	.	.
.	.	16C/	.	.	.	.	.	.	.	.	.	.	.	.	.	.	.
.	.	16C/JJ	.	.	.	.	.	.	.	.	.	.	.	.	.	.	.
=46	=46	=46	=46	=46	=46	=46	=46	=46	=46	=46	=46	=46	=46	=46	=46	=46	=46
*	*	*	*	*	*	*	*	*^	*	*	*	*	*	*	*	*	*
1C/_>	]	16C/_LL	]]	1C/]	.	1r	.	1a-/^	1f\	.	1a-/X^	1C\	.	1b/X	1f\	.	1dd\^<)	.
.	.	16C/	.	.	.	.	.	.	.	.	.	.	.	.	.	.	.	.
.	.	16C/	.	.	.	.	.	.	.	.	.	.	.	.	.	.	.	.
.	.	16C/	.	.	.	.	.	.	.	.	.	.	.	.	.	.	.	.
.	.	16C/	.	.	.	.	.	.	.	.	.	.	.	.	.	.	.	.
.	.	16C/	.	.	.	.	.	.	.	.	.	.	.	.	.	.	.	.
.	.	16C/	.	.	.	.	.	.	.	.	.	.	.	.	.	.	.	.
.	.	16C/	.	.	.	.	.	.	.	.	.	.	.	.	.	.	.	.
.	.	16C/	.	.	.	.	.	.	.	.	.	.	.	.	.	.	.	.
.	.	16C/	.	.	.	.	.	.	.	.	.	.	.	.	.	.	.	.
.	.	16C/	.	.	.	.	.	.	.	.	.	.	.	.	.	.	.	.
.	.	16C/	.	.	.	.	.	.	.	.	.	.	.	.	.	.	.	.
.	.	16C/	.	.	.	.	.	.	.	.	.	.	.	.	.	.	.	.
.	.	16C/	.	.	.	.	.	.	.	.	.	.	.	.	.	.	.	.
.	.	16C/	.	.	.	.	.	.	.	.	.	.	.	.	.	.	.	.
.	.	16C/JJ	.	.	.	.	.	.	.	.	.	.	.	.	.	.	.	.
*	*	*	*	*	*	*	*	*v	*v	*	*	*	*	*	*	*	*	*
=47	=47	=47	=47	=47	=47	=47	=47	=47	=47	=47	=47	=47	=47	=47	=47	=47	=47
1C/]	.	16C/LL	]	1C/	.	[1c/	.	1g/	.	[1g/	1C\	.	[1cc/	1e\X	.	[1cc\	.
.	.	16C/	.	.	.	.	.	.	.	.	.	.	.	.	.	.	.
.	.	16C/	.	.	.	.	.	.	.	.	.	.	.	.	.	.	.
.	.	16C/	.	.	.	.	.	.	.	.	.	.	.	.	.	.	.
.	.	16C/	.	.	.	.	.	.	.	.	.	.	.	.	.	.	.
.	.	16C/	.	.	.	.	.	.	.	.	.	.	.	.	.	.	.
.	.	16C/	.	.	.	.	.	.	.	.	.	.	.	.	.	.	.
.	.	16C/	.	.	.	.	.	.	.	.	.	.	.	.	.	.	.
.	.	16C/	.	.	.	.	.	.	.	.	.	.	.	.	.	.	.
.	.	16C/	.	.	.	.	.	.	.	.	.	.	.	.	.	.	.
.	.	16C/	.	.	.	.	.	.	.	.	.	.	.	.	.	.	.
.	.	16C/	.	.	.	.	.	.	.	.	.	.	.	.	.	.	.
.	.	16C/	.	.	.	.	.	.	.	.	.	.	.	.	.	.	.
.	.	16C/	.	.	.	.	.	.	.	.	.	.	.	.	.	.	.
.	.	16C/	.	.	.	.	.	.	.	.	.	.	.	.	.	.	.
.	.	16C/JJ]	.	.	.	.	.	.	.	.	.	.	.	.	.	.	.
=48	=48	=48	=48	=48	=48	=48	=48	=48	=48	=48	=48	=48	=48	=48	=48	=48	=48
2.C/	.	2.C/	.	2.C/	.	2.c/]	.	2.g/	.	2.g/]	2.C\	.	2.cc/]	2.e\	.	2.cc\]	.
4r	.	4r	.	4r	.	4r	.	4r	.	4r	4r	.	4r	4ryy	.	4r	.
*	*	*	*	*	*	*	*	*	*	*v	*v	*	*	*	*	*	*
*	*	*	*	*	*	*	*	*	*	*	*	*v	*v	*	*	*
==	==	==	==	==	==	==	==	==	==	==	==	==	==	==	==
*-	*-	*-	*-	*-	*-	*-	*-	*-	*-	*-	*-	*-	*-	*-	*-
!!!system-decoration: [(s1[(s2)][(s3)][(s4)]s5,s6,s7,s8)]
!!!RDF**kern: > = above
!!!RDF**kern: < = below
!!!RDF**kern: i = editorial accidental
!!!ENC: Krzysztof Stępień
!!!END: 2020-01-24
!!!ENC: Leszek Kubiak
!!!END: 2020-02-27
